X: 2383
T: DEMOCRATIC HORNPIPE
%R: hornpipe, reel
B: James Kerr "Merry Melodies" v.2 p.42 #383
Z: 2016 John Chambers <jc:trillian.mit.edu>
M: C
L: 1/8
K: Gm
u(GA) |\
BABc dcdf | gfga fabg |\
fdbg fdcd | BAGF GFEF |\
G2(GA) BABG | F2(FG) AGFD |\
GABc dcBA | B2G2G2 |]
ug2 |\
gfdf gabg | gfdf GFDF |\
BABc dcde | fcdB AGFD |\
BFdB AFec | BFdB AFec |\
dfga bagf | d2g2g2 |]

%%sep 1 1 500
%%sep 1 1 500

